packages/form-js-viewer/src/render/components/icons/Separator.svg

<svg width="54" height="54" viewBox="0 0 54 54" fill="none" xmlns="http://www.w3.org/2000/svg">
<path d="M26.2929 16.2929C26.6834 15.9024 27.3166 15.9024 27.7071 16.2929L31.7071 20.2929C32.0976 20.6834 32.0976 21.3166 31.7071 21.7071C31.3166 22.0976 30.6834 22.0976 30.2929 21.7071L27 18.4142L23.7071 21.7071C23.3166 22.0976 22.6834 22.0976 22.2929 21.7071C21.9024 21.3166 21.9024 20.6834 22.2929 20.2929L26.2929 16.2929Z" fill="currentColor"/>
<path d="M9 26L45 26V28L9 28V26Z" fill="currentColor"/>
<path d="M22.2929 33.7071L26.2929 37.7071C26.6834 38.0976 27.3166 38.0976 27.7071 37.7071L31.7071 33.7071C32.0976 33.3166 32.0976 32.6834 31.7071 32.2929C31.3166 31.9024 30.6834 31.9024 30.2929 32.2929L27 35.5858L23.7071 32.2929C23.3166 31.9024 22.6834 31.9024 22.2929 32.2929C21.9024 32.6834 21.9024 33.3166 22.2929 33.7071Z" fill="currentColor"/>
</svg>

<svg xmlns="http://www.w3.org/2000/svg" width="54" height="54" fill="none"><path fill="currentColor" d="M26.293 16.293a1 1 0 0 1 1.414 0l4 4a1 1 0 0 1-1.414 1.414L27 18.414l-3.293 3.293a1 1 0 0 1-1.414-1.414l4-4ZM9 26h36v2H9v-2ZM22.293 33.707l4 4a1 1 0 0 0 1.414 0l4-4a1 1 0 0 0-1.414-1.414L27 35.586l-3.293-3.293a1 1 0 0 0-1.414 1.414Z"/></svg>
